X:1
T:Title
L:1/8
Q:1/4=88
M:4/4
K:Eb
V:1 treble nm="Flute, Track 1" snm="Fl."
V:1
 cd e2 e d2 d | cB A2 A G2 G- | G8 | fg a2 a g2 g | c'd' b2 a g3 | g8 | cd e2 e f2 f | %7
 ed c2 c B2 B | fg a2 a g2 g | c'd' b2 a g3 | g8 | g_g a2 fddf | agfg- g g3 | dcde f2 .f2 | %14
 gdgd z e3- | e e3- e z z2 | g_g a2 fddf | agfg- g g3 | dcde f2 .f2 | gd g<.d (5:4:4z/ d/e c3- | %20
 (3:2:2c c2- c6- | c8 |] %22

